X:1
T:Shine for Jesus
T:Shine for Jesus
T:Edward C. Deas
T:Julian Alford, 1915
T:Public Domain Courtesy of the Cyber Hymnal™
T:Public Domain Courtesy of the Cyber Hymnal™
C:Edward C. Deas
Z:Public Domain
Z:Courtesy of the Cyber Hymnal™
%%score ( 1 2 ) ( 3 4 )
L:1/8
Q:1/4=90
M:4/4
K:C
V:1 treble 
V:2 treble 
V:3 bass 
V:4 bass 
V:1
 CEGc A<G E2 | [EG]4 [FG]4 | CEGc A<G E2 | [GB]3 [Gc] [^FA]2 G2 | CEGc A<G E2 | ABcd c<A G2 | %6
w: 1.~When the clouds are hang- ing low,|Shine, shine;|And you know not where to go,|Shine for Je- sus;|Take your bur- den to the Lord,|You can take Him at His word,|
w: 2.~When the world its pow- ers wield,|Shine, shine;|Je- sus Christ will be your shield,|Shine for Je- sus;|Seek the Mas- ter on your knees,|He’s a- bove you, and He sees,|
w: 3.~When your sins are washed a- way,|Shine, shine;|He’ll go with you ev- ery day,|Shine for Je- sus;|You are ne- ver- more a- lone,|Je- sus Christ is all your own,|
w: 4.~When your path is black as night,|Shine, shine;|Soon He’ll bring you to the light,|Shine for Je- sus;|Though the way be hard and long,|Ne- ver change from right to wrong,|
 [FA]<[GB] [Ac]2 [Ec][FA] [EG]2 | [B,E]2 [B,D]2 C4 ||"^Refrain" [Fc]3 [Fd] [Fc]<[Fd] [Fc][FA] | %9
w: Sing and pray ev- ery day,|Shine, shine, shine!||
w: Sing and pray ev- ery day,|Shine, shine, shine!|Shine when trou- bles shake you,|
w: Sing and pray ev- ery day,|Shine, shine, shine!||
w: Sing and pray ev- ery day,|Shine, shine, shine!||
 [EG]3 [EA] [EG][FA][EG][CE] | [B,D]>[CE] [DF]2 [CE]>[DF] [EG]2 | [FB]3 [Fc] [Fd][FB][FA][FG] | %12
w: |||
w: Shine when friends for- sake you,|All the way, ev- ery day,|There’s a crown a- wait- ing;|
w: |||
w: |||
 [Ec]3 [Ed] [Fc][Fd][Fc][FA] | [EG]3 [EA] [EG][EA][EG]E | [FA]>[FB] [Fc][FA] [EG] [Ec]2 [DF] | %15
w: |||
w: Shine when foes as- sail you,|Shine when o- thers fail you,|Keep your eyes on Je- sus, And|
w: |||
w: |||
 [B,E]2 [B,D]2 C4 |] %16
w: |
w: shine, shine, shine.|
w: |
w: |
V:2
 CEGc A<G E2 | x8 | CEGc A<G E2 | x6 G2 | CEGc A<G E2 | ABcd c<A G2 | x8 | x4 C4 || x8 | x8 | x8 | %11
 x8 | x8 | x7 E | x8 | x4 C4 |] %16
V:3
 C,E,G,C A,<G, E,2 | C4 B,4 | C,D,E,F, E,<C, B,,2 | [D,D]3 [D,D] [D,C]2 [G,B,]2 | %4
 C,E,G,C A,<G, E,2 | A,B,CD C<A, G,2 | [F,A,]<[F,A,] [F,A,]2 [C,C][C,C] [C,C]2 | %7
 G,2 [G,,F,]2 [C,E,]4 || [F,A,]3 [F,A,] [F,A,]<[F,A,] [F,A,][F,C] | %9
 [C,C]3 [C,C] [C,C][C,C][C,C][C,G,] | [G,,G,]>[G,,G,] [G,,G,]2 [C,G,]>[C,G,] [C,C]2 | %11
 [G,,G,D]3 [G,,G,C] [G,,G,B,][G,,G,][A,,G,][B,,G,] | [C,G,]3 [C,G,] [F,A,][F,A,][F,A,][F,C] | %13
 [C,C]3 [C,C] [C,C][C,C][C,C][C,C] | [F,C]>[F,B,] [F,A,][F,C] [C,C] [C,C]2 [F,A,] | %15
 G,2 [G,,F,]2 [C,E,]4 |] %16
V:4
 C,E,G,C A,<G, E,2 | (C,2 ^C,2) (D,2 G,,2) | C,D,E,F, E,<C, B,,2 | x8 | C,E,G,C A,<G, E,2 | %5
 A,B,CD C<A, G,2 | x8 | G,2 x6 || x8 | x8 | x8 | x8 | x8 | x8 | x8 | G,2 x6 |] %16

